X: 28996
T: Naughton's
R: reel
M: 4/4
K: Adorian
EGAB c2dc|BG~G2 BGAG|EGAB c2eg|1 gedg eAAG:|2 gedg eAA2||
a2ea aged|(3B^cd ef g2ag|eaab agef|gedg eAA2|
~a3b aged|^cdef g2ag|eaag egde|gedg BAAG||

